X:1
T:Yea though I walk Sullivan arr. Wright
T:James Gibb editions
T:Yea, though  I walk - Sullivan
T:#
T:#
%%score [ 1 2 3 ] { ( 4 6 ) | ( 5 7 ) }
L:1/8
Q:1/4=140
M:2/2
K:F
V:1 treble nm="Alto" snm="A"
V:2 treble-8 nm="Tenor" snm="T"
V:3 bass nm="Bass" snm="B"
V:4 treble nm="Accomp."
V:6 treble 
V:5 bass 
V:7 bass 
V:1
"^Yea, though I walk""^arranged for ATB by Peter Wright"!pp!"^Psalm 23:4""^Sir Arthur Sullivan\n(1842-1900)" A4 A2 A2 | %1
w: Yea, though I|
 G4 G2 G2 | F2 F2 G2 A2 | c4 B2 B2 | A8 |!mp! G4 G4 | F4 E4 | A4 A4 | z4 z2!mf! A2 | (A4 =B4 | %10
w: walk through the|val- ley of the|sha- dow of|death,|I will|fear no|e- vil,|for|Thou *|
 c4) =B4 | (c6 G2) | G8 |!p! G4 G2 F2 | E4 D2 D2 | D2 E2 F2 E2 | D4 D2 D2 | D8 | C4 C4 | C4 C4 | %20
w: * art|with *|me.|Yea, though I|walk through the|val- ley of the|sha- dow of|death,|I will|fear no|
 (C4 =B,4) | C4 z4 | z8 | z8 | z8 | z4 z2 C2 | A4 A2 A2 | A4"^dim." (c2 =B2) | A4 ^G4 | A8 | %30
w: e\- *|vil.||||Thy|rod and thy|staff, they *|com- fort|me.|
!pp! A4 A2 A2 | G4 G2 G2 | F2 F2 G2 A2 | c4 B2 B2 | A4 z4 | z8 | z8 | z8 | z8 | z8 | z8 | z8 | %42
w: Yea, though I|walk through the|val- ley of the|sha- dow of|death,||||||||
!mf! F4 F2 E2 | D4 ^F2 F2 | G2 B2 B2 A2 | G2 E2 (F2 G2) | A4!mf! G2 A2 | B4 G4 | F4 F2 A2 | %49
w: Yea, though I|walk through the|val- ley of the|sha- dow of *|death, I will|fear no|e- vil for|
 G4 ^F4 | G8 | G6!mp! =B,2 | C8- | C4 (G2 F2) | F8 | F4 z2!pp!"^rall."[Q:1/4=132] F2 | %56
w: Thou art|with|me, for|Thou|* art *|with|me, art|
[Q:1/4=120] (E6[Q:1/4=110] F2) |[Q:1/4=108] F8 |] %58
w: with *|me.|
V:2
!pp! c4 c2 c2 | c4 c2 c2 | c2 c2 c2 c2 | F4 G2 c2 | c8 |!mp! G4 G4 | F4 E4 | A4 A4 | z4 z2!mf! A2 | %9
w: Yea, though I|walk through the|val- ley of the|sha- dow of|death,|I will|fear no|e- vil,|for|
 (f8 | e4) d4 | (c6 d2) | e8 | z8 | z8 | z8 | z8 | z8 | c4 c4 | c4 c4 | (c4 =B4) | c4 z4 | z8 | %23
w: Thou|* art|with *|me.||||||I will|fear no|e\- *|vil.||
 z8 | z8 | z4 z2 c2 | c4 c2 c2 | c4"^dim." (e2 d2) | c4 =B4 | A8 |!pp! c4 c2 c2 | c4 c2 c2 | %32
w: ||Thy|rod and thy|staff, they *|com- fort|me.|Yea, though I|walk through the|
 c2 c2 c2 c2 | F4 G2 c2 | c4 _e2 e2 |!mp! (d4 =e4 | f4 c4 | (e4 f4) | _e4 d4 |!<(! c4 c4 | B8!<)! | %41
w: val- ley of the|sha- dow of|death, I will|fear *|* no|e\- *|vil for|Thou art|with|
 A8 | z8 |!mp! B4 B2 A2 | G4 G2 F2 | E2 c4 c2 | c4!mf! G2 A2 | B4 G4 | F4 F2 A2 | G4 ^F4 | G8 | %51
w: me,||Yea, though I|walk through the|sha- dow of|death, I will|fear no|e- vil for|Thou art|with|
 G6!mp! =B2 | c8- | c4 _B2 A2) | G8 | G4 z2!pp!"^rall." G2 | B8 | A8 |] %58
w: me, for|Thou|* art *|with|me, art|with|me.|
V:3
!pp! F,4 F,2 F,2 | B,4 B,2 B,2 | A,2 A,2 G,2 F,2 | D,4 E,2 E,2 | F,8 |!mp! G,4 G,4 | F,4 E,4 | %7
w: Yea, though I|walk through the|val- ley of the|sha- dow of|death,|I will|fear no|
 A,4 A,4 | z4!mf! z2 A,2 | (D,8 | E,4) G,4 | C8 | C,8 | z8 | z8 | z8 | z8 | z8 | C4 C4 | C4 C4 | %20
w: e- vil,|for|Thou|* art|with|me.||||||I will|fear no|
 (C4 =B,4) | C4 z2 C,2 | C4 _B,2 A,2 | A,4 B,4 | G,4 (A,2 B,2) | C4 z2 C2 | F,4 F,2 F,2 | %27
w: e\- *|vil. Thy|rod and thy|staff, they|com- fort *|me. Thy|rod and thy|
 F,4"^dim." D,4 | E,4 E,4 | A,,8 |!pp! F,4 F,2 F,2 | B,4 B,2 B,2 | A,2 A,2 G,2 F,2 | D,4 E,2 E,2 | %34
w: staff, they|com- fort|me.|Yea, though I|walk through the|val- ley of the|sha- dow of|
 F,4 z4 | z8 | z8 | z8 | z8 | z8 | z8 |!mp! F,4 F,2 E,2 | D,4 D,2 C,2 | (B,,2 C,2) D,4 | %44
w: death,|||||||Yea, though I|walk through the|val\- * ley|
 G,,4 G,,4 | C,4 D,2 E,2 | F,4!mf! G,2 A,2 | B,4 G,4 | F,4 F,2 A,2 | G,4 ^F,4 | G,8 | %51
w: of the|sha- dow of|death, I will|fear no|e- vil for|Thou art|with|
 G,6!mp! =B,2 | C8- | C4 C,4 | C,8 | C,4 z2!pp!"^rall." C,2 | C,8 | F,8 |] %58
w: me, for|Thou|* art|with|me, art|with|me.|
V:4
!pp! [FA]4 [FA]2 [FA]2 | [EG]4 [EG]2 [EG]2 | F2 F2 [EG]2 [FA]2 | [Ac]4 [GB]2 [GB]2 | [FA]8 | %5
!mp! [DG]4 [DG]4 | [DF]4 [B,DE]4 | [^CE]4 [CA]4 | x8 | f8 | x8 | x8 | x8 |!p! x8 | %14
 [EA]4 [DG]2 [DF]2 | [=B,DF]2 [B,DE]2 [A,CF]2 [_B,^CE]2 | [A,DA]4 [A,DF]2 [A,D]2 | [=B,D]8 | %18
 C4 [CE]4 | [EG]4 [_EA]4 | [DG]8 | C4 z2 C2 | x8 | D8 | x8 | x8 | x8 | x4 F4 | [CEA]4 [=B,D^G]4 | %29
 [CA]8 |!pp! [FA]4 [FA]2 [FA]2 | [EG]4 [EG]2 [EG]2 | F2 F2 [EG]2 [FA]2 | [Ac]4 [GB]2 [GB]2 | %34
 [FA]4 [_EF]2 [EF]2 | [Fd]4 [Ge]4 | [Ff]4 [Fc]4 | [EB]4 [FA]4 | [_EA]4 (B2 G2) | %39
!<(! [A,CF]4!<)! [CFA]4 | [EG]8 |!mf! F8 | F4 F2 E2 | [DF]4 [C^F]4 | G2 B2 B2 A2 | %45
 [DG]2 E2 F2 [CG]2 | A4 c4 | x4 c2 B2 | [FA]4 [Fd]2 [Ac]2 | [GB]4 [^FA]4 | A8 | G6 G2 | %52
!<(! [CE]2!<)! [DF]2 [EG]2 [FA]2 |!>(! [DFB]2!>)! [CEA]2 [DG]2 [CF]2 | x8 | x8 |!pp! E6 F2 | F8 |] %58
V:5
 [F,C]4 [F,C]2 [F,C]2 | [B,C]4 [B,C]2 [B,C]2 | [A,C]2 [A,C]2 [G,C]2 [F,C]2 | %3
 [D,F,]4 [E,G,]2 [E,C]2 | [F,C]8 | [B,,G,]4 [B,,G,]4 | [A,,A,]4 [G,,G,]4 | [A,,A,]8 | x8 | %9
 A,4 =B,4 | C4 x4 | x8 | x8 | x8 | x8 | x8 | x8 | x8 | x8 | C8 | C4 =B,4 | x8 | x8 | x8 | C6 C2 | %25
 C6 C2 | [F,C]4 [F,C]2 [F,C]2 | [F,C]4"^dim." x4 | E,8 | [A,,A,]8 | [F,C]4 [F,C]2 [F,C]2 | %31
 [B,C]4 [B,C]2 [B,C]2 | [A,C]2 [A,C]2 [G,C]2 [F,C]2 | [D,F,]4 [E,G,]2 [E,C]2 | [F,C]4 A,2 A,2 | %35
 [B,D]4 [B,C]4 | [A,C]4 [A,C]4 | [G,C]4 [F,C]4 | F,4 (F,2 G,2) | C,8 | [C,B,]8 | F,6 E,2 | F,8 | %43
 B,4 B,2 A,2 | G,4 G,2 F,2 | E,2 C4 B,2 | A,2 C2 _E4 | D4 !courtesy!=E4 | z4 B,2 _E2 | D4 C4 | %50
 [G,=B,]8 | =B,6 G,2 | G,2 A,2 !courtesy!_B,2 C2 | z4 B,2 A,2 | [C,G,]8- | [C,G,]8 | [C,B,]8 | %57
 [F,,A,]8 |] %58
V:6
 x8 | x8 | x8 | x8 | x8 | x8 | x8 | x8 | z4!mf! z2 A2 | A4 _A4 | [Ge]4 [F=Bd]4 | [Ec]6 [FGd]2 | %12
 [EGc]8 | [EG]4 [Gc]2 [F=B]2 | x8 | x8 | x8 | x8 | x8 | x8 | x8 | x8 | %22
 [Ac]4 [GB]2"^cresc." [_E^FA]2 | [^FA]4 [GB]4 | [GB]4 [FA]2 [EG]2 | [EG]4 [FA]4 | %26
 [FA]4 [FA]2 [FA]2 | [FA]4 [Ec]2 [D=B]2 | x8 | x8 | x8 | x8 | x8 | x8 | x8 | x8 | x8 | x8 | x8 | %39
 x8 | x8 | x8 | x8 | x8 | B,4 D4 | x8 | C2 F2 G2!mf! A2 | [Bf]4 G4 | x8 | x8 | !courtesy!=F8 | %51
 G4 F2 D2 | x8 | x8 | [CF]8- | [CF]8 | C8 | C8 |] %58
V:7
 x8 | x8 | x8 | x8 | x8 | x8 | x8 | x8 | z4 z2 A,2 | D,8 | E,4 G,4 | C8 | C,8 | %13
 [C,C]4 [E,G,]2 [D,G,]2 | [C,G,]4 [=B,,G,]2 [A,,A,]2 | ^G,,2 G,,2 A,,2 =G,,2 | F,,4 F,,2 [F,,D,]2 | %17
 [G,,D,G,]8 | A,,4 A,4 | G,4 ^F,4 | G,4 G,,4 | C,8 | C,8 | C,4 B,,2 A,,2 | G,,4 A,,2 B,,2 | %25
 B,,4 A,,2 G,,2 | F,,8 | x4 D,4 | x8 | x8 | x8 | x8 | x8 | x8 | x8 | x8 | x8 | x8 | x4 B,,4 | x8 | %40
 x8 | A,8 | D,4 D,2 C,2 | B,,2 C,2 D,4 | G,,4 G,,4 | C,4 D,2 E,2 | F,4 F,,4 | F,,8- | %48
 F,,4 B,,2 C,2 | D,8 | G,,8 | G,,6 =B,,2 | C,8 | C,8 | x8 | x8 | x8 | x8 |] %58

